X:181
T: Muede kehrt ein Wandersmann zurueck
N: D1012
O: Europa, Mitteleuropa, Deutschland, Brandenburg, Bauzen
N: DVA-Signatur A 59 141
R: Liebes - Lied
M: 4/4
L: 1/16
K: G
D2D2 | B6A2G3FG2A2 | D8z4
F2G2 | A6G2F2A2e2d2 | B8z4
G2A2 | B2d2d8c2B2 | A2B2c4z2
c2c2e2 | d6c2B2A2B2A2 | G12
G2A2 | B2d2d8c2B2 | A2B2c4z2
c2c2e2 | d6c2B2A2B2A2 | G12

@@@ Tune index: 2703
